shared/images/iconfont/59-kb-iconfont-lock-16.svg

<?xml version="1.0" encoding="UTF-8"?>
<svg width="16px" height="16px" viewBox="0 0 16 16" version="1.1" xmlns="http://www.w3.org/2000/svg" xmlns:xlink="http://www.w3.org/1999/xlink">
    <!-- Generator: sketchtool 57.1 (101010) - https://sketch.com -->
    <title>C26206EE-0A90-4A57-960F-CC2619565D9F</title>
    <desc>Created with sketchtool.</desc>
    <g id="Symbols" stroke="none" stroke-width="1" fill="none" fill-rule="evenodd">
        <g id="59-kb-iconfont-lock-16">
            <g>
                <rect id="icon-area" opacity="0" x="0" y="1" width="16" height="16"></rect>
                <path d="M8,0 C10.2493052,0 11.8975704,1.68396847 11.9953998,3.80035966 L12,4 L12,5 L13.6,5 C14.330228,5.00003477 14.9299019,5.8298105 14.9942785,6.54233664 L15,6.66666667 L15,14 C15,15.0543618 14.1841222,15.9181651 13.1492623,15.9945143 L13,16 L3,16 C1.9456382,16 1.08183488,15.1841222 1.00548574,14.1492623 L1,14 L1,6.66666667 C1,5.97121138 1.55910561,5.10280118 2.27257384,5.00842661 L2.4,5 L4,5 L4,4 C4,1.790861 5.68040405,0 8,0 Z M8,8 C7.44771525,8 7,8.44771525 7,9 L7,9 L7,12 C7,12.5522847 7.44771525,13 8,13 C8.55228475,13 9,12.5522847 9,12 L9,12 L9,9 C9,8.44771525 8.55228475,8 8,8 Z M8.0420765,2 C7.12958691,2 6.10294915,2.80498703 6.00724326,3.66989528 L6,3.79998779 L6,5 L10,5 L10,3.79998779 C10,2.8874982 9.00019057,2 8.0420765,2 Z" id="Combined-Shape" fill="#000000"></path>
            </g>
        </g>
    </g>
</svg>

<svg xmlns="http://www.w3.org/2000/svg" width="16" height="16" viewBox="0 0 16 16">
    <path fill="#000" fill-rule="evenodd" d="M8 0c2.25 0 3.898 1.684 3.995 3.8L12 4v1h1.6c.73 0 1.33.83 1.394 1.542l.006.125V14a2 2 0 0 1-1.85 1.995L13 16H3a2 2 0 0 1-1.995-1.85L1 14V6.667c0-.696.56-1.564 1.273-1.659L2.4 5H4V4c0-2.21 1.68-4 4-4zm0 8a1 1 0 0 0-1 1v3a1 1 0 0 0 2 0V9a1 1 0 0 0-1-1zm.042-6c-.912 0-1.94.805-2.035 1.67L6 3.8V5h4V3.8C10 2.887 9 2 8.042 2z"/>
</svg>
